X: 403
T: Black Mountain Rag
B: jims roots
M:4/4
L:1/8
Q: 1/4=100
K:A
V:1 
AB |: "A"cefc efeA | cefc e2AB | cefc efeA | "E"cBAF "A"EFAB:|
|:"A"[c2e2][ce][ce] [c2e2][ce][ce] | cBAF EFAB | [c2e2][ce][ce] cBAF | "E"EFAB "A"[A2e2][A2e2] :|
|:"A"[c2e2][ce][ce] cABA | A2AA BAcA | "D"[d2F2][dF]c d2de | [d2f2][d4a4] f2 |
"A"e2ef edcB | A2AA G2A2 | "E"B2Bc BAGF | E2EF E2FG ||
"A"AGAB cBcd | efed cBAc | "D"dcde fefg | agab a2cd |
"A"edce "D"dcBd | "A"cBAc "E"BAGB | "A"A2EF "E"ECB,2 | "A"A,4 z4 |
% abcbook-tune_id 6298c2457e42f2488e93e133


% abcbook-boost 0
% abcbook-tablature 
% abcbook-transpose 
% abcbook-lastupdated 1654178373382
% abcbook-soundfonts 
% abcbook-repeats 1


